X:176
T:Canterbury Revel. JJo.176
B:J.Johnson Choice Collection Vol 8 1758
Z:vmp.Simon Wilson 2013 www.village-music-project.org.uk
Z:Dance added by John Chambers 2017
M:2/4
L:1/8
%Q:1/2=70
K:G
|: D |\
DGBG | cABG | ABcA | B2g2 |\
ecdB | cABG | AcBA | G2[GG,] :|
|: d |\
gfga | gbgd | egec | B2g2 |\
ceac | BdgB | AcBA | G2[GG,] :|
%%begintext align
%% Foot across and turn .| the
%% same again :| cross over and
%% half figure :||. Right and
%% Left at top :||:
%%endtext
